!!!OTL: Auf Hirten, auf erwacht ... (4-7), S. 9
!!!id: P0568
**kern
*clefG2
*k[f#c#g#]
*A:
{8e
=1
8a
8cc#
8e
8a
8cc#
8e
=2
4a
8cc#
4ee}
=3
{8cc#
=4
8b
8dd
8e
8e
8f#
8g#
=5
[2a
8a]}
=6
{8e
=7
8a
8cc#
8e
8a
8cc#
8e
=8
4a
8cc#
4ee}
=9
{8cc#
=10
8b
8dd
8e
8e
8f#
8g#
=11
[2a
8a]}
=12
{8ee
=13
4dd
8cc#
4b
8ee
=14
4cc#
8a
4e
8ee
=15
4cc#
8a
4e}
=16
{8ee
=17
4dd
8cc#
8dd
8ff#
8ee
=18
[2cc#
8cc#]}
=19
{8e
=20
8a
8cc#
8e
8a
8cc#
8e
=21
4a
8cc#
4ee}
=22
{8cc#
=23
8b
8dd
8e
8e
8f#
8g#
=24
[2a
8a]}
==
*-
!!!minrhy: 8
!!!meters: 6/8 ]  ZZ[8
!!!cut: Auf Hirten, auf erwacht ... (4-7), S. 9
!!!reg: Lothringen
!!!trd: PINCK, Louis: Verklingende Weisen Bd 4, Kassel 1939
!!!rhy1: X  XXXXXX  X_XX_
!!!rhy2: X  XXXXXX  X__^
!!!key: P0568  08  A 6/8 ]  ZZ[8
!!!mod: HEPTATONIK IONISCH]  AMBITUS[9
!!!kad: 5151-5351
!!!akz: 1115_2-511_1115_2-511_423-53-5_4433_1115_2-511_
!!!fot: 'a__b__a__b__c__d__a__b__
!!!for: 'a__aw_a__aw_b__c__a__aw_
!!!fok: '/__Vd_/__Vd_\__Sd_/__Vd_
!! PHRAS[AUFTAKTIG]
!!!fkt: geistliches, religiöses Lied
!! LOTH VKL
!! PR[23] 2K[3] 2G[9] 3K[7] 3G[8] 4A[0] 4Ü[0] 5A[1] 6K[0] 6G[7]
!! 7K[0] 7G[0] 8A[0] MEHR[0] SI[35] ABS[101] SR[12] SP[23]
!! ST[43] 2k[4] 2g[16] 3k[5] 3g[9] 4d[5] 4ü[0] 5d[2] 6k[0] 6g[2]
!! 7k[0] 7g[0] 8d[0] mehr[0] si[43] dm[-8] sr[20] sp[23]
!! 1F[3] 2F[8] 3F[59] 4F[25] LF[0] 2P[3] 3P[0] 4P[3] TRI[3] DF[6] AB[104]
!! TF[0] U3K[0] U3[0] U4[0] U4Ü[0] U5[7] U6K[0] U6[0] U7K[0] U7[0]
!! N1[29] N2K[0] N2[9] N3K[0] N3[28] N4[9] N4Ü[0] N5[12] N6K[0] N6[6]
!!!n7k: 0] N7[0] O1[0] O2K[0] O2[0] O3K[0] O3[0] HÖ[0
